svg/300/outlined/humidity_percentage-fill.svg

<svg xmlns="http://www.w3.org/2000/svg" width="48" height="48" viewBox="0 -960 960 960"><path d="M572.402-265.001q17.828 0 30.212-12.48 12.385-12.479 12.385-30.307T602.519-338q-12.479-12.385-30.307-12.385T542-337.905q-12.385 12.479-12.385 30.307t12.48 30.212q12.479 12.385 30.307 12.385ZM378-266.385 613.615-502 582-533.999 346.001-298 378-266.385Zm9.788-183.23q17.828 0 30.212-12.48 12.385-12.479 12.385-30.307t-12.48-30.212q-12.479-12.385-30.307-12.385t-30.212 12.48q-12.385 12.479-12.385 30.307T357.481-462q12.479 12.385 30.307 12.385Zm92.141 349.614q-128.467 0-214.197-88.268Q180.001-276.537 180.001-408q0-93.076 74.5-204.037Q329.001-722.999 480-853.844q150.999 130.845 225.499 241.807 74.5 110.961 74.5 204.037 0 131.463-85.801 219.731-85.802 88.268-214.269 88.268Z"/></svg>

<svg xmlns="http://www.w3.org/2000/svg" width="48" height="48" viewBox="0 -960 960 960"><path d="M572.4-265q17.83 0 30.21-12.48Q615-289.96 615-307.79T602.52-338q-12.48-12.38-30.31-12.38T542-337.91q-12.38 12.48-12.38 30.31t12.47 30.21Q554.57-265 572.4-265ZM378-266.39 613.61-502 582-534 346-298l32 31.61Zm9.79-183.23q17.83 0 30.21-12.47 12.38-12.48 12.38-30.31t-12.47-30.21Q405.43-535 387.6-535t-30.21 12.48Q345-510.04 345-492.21T357.48-462q12.48 12.38 30.31 12.38ZM479.93-100q-128.47 0-214.2-88.27Q180-276.54 180-408q0-93.08 74.5-204.04T480-853.84Q631-723 705.5-612.04 780-501.08 780-408q0 131.46-85.8 219.73Q608.4-100 479.93-100Z"/></svg>
